!! 00000] TT[WS
!!!OTL: Quanjia laodong
!!!ARE: Asia, China, Shanxi Dingxiang
!! Ethnic Group: Han
!! WI, 318
!!!SCT: J0386
!!!YEM: Copyright 1995, estate of Helmut Schaffrath.
**kern
*ICvox
*Ivox
*M2/4
*k[f#c#]
*D:
{8dd
16dd
16dd
16ee
16cc#
16b
16a
=1
16f#
16a
16f#
16B
8A
16A
16B
=2
8dd
16dd
16dd
16ee
16cc#
16b
16a
=3
16f#
16a
16f#
16B
4A}
=4
{8dd
16f#
16a
8b
8dd
=5
8dd
16f#
16a
16b
16a
16f#
16e
=6
16d
16B
16d
16e
8a
16a
16e
=7
2d}
==
!!!AGN: Xiaodiao. Xinminge, Xuanchuan
!! Neue Text. Politische Liede
!!!ONB: ESAC (Essen Associative Code) Database: CHINA
!!!AMT: simple duple
!!!AIN: vox
!!!EED: Helmut Schaffrath
!!!EEV: 1.0
*-
